src/svg/contributions_emoji.svg

<svg viewBox="0 0 64 64" xmlns="http://www.w3.org/2000/svg" fill-rule="evenodd" clip-rule="evenodd" stroke-miterlimit="10"><path d="M42.696 36.959c-2.188 0-3.279-1.172-3.279-2.616V22.478c0-1.445 1.773-2.617 3.961-2.617h9.245c2.187 0 3.96 1.172 3.96 2.617v11.865c0 1.444-1.092 2.576-3.279 2.576" fill="none" stroke="#000" stroke-width="1.99" transform="matrix(.73794 0 0 .7718 -1.665 -5.046)"/><path d="M42.696 27.003v21.81h10.608v-21.81M48 36.959v11.854" fill="none" stroke="#000" stroke-width="1.99" transform="matrix(.73794 0 0 .7718 -1.665 -5.046)"/><circle cx="48" cy="13.234" r="5.234" fill="none" stroke="#000" stroke-width="1.99" transform="matrix(.73794 0 0 .7718 -1.665 -5.046)"/><g fill="none" stroke="#000" stroke-width="1.99" transform="matrix(.73794 0 0 .7718 -1.665 -5.046)"><path d="M16.588 52.57c-2.188 0-3.278-1.173-3.278-2.617V38.089c0-1.445 1.773-2.617 3.961-2.617h9.244c2.187 0 3.96 1.172 3.96 2.617v11.864c0 1.444-1.092 2.576-3.279 2.576"/><path d="M16.588 42.614v21.809h10.608V42.614m-5.304 9.956v11.853"/><circle cx="21.892" cy="28.845" r="5.234"/><path d="M68.804 52.57c-2.188 0-3.278-1.173-3.278-2.617V38.089c0-1.445 1.772-2.617 3.961-2.617h9.244c2.187 0 3.96 1.172 3.96 2.617v11.864c0 1.444-1.092 2.576-3.278 2.576"/><path d="M68.804 42.614v21.809h10.608V42.614m-5.305 9.956v11.853"/><circle cx="74.107" cy="28.845" r="5.234"/></g><path d="M64.767 66.982h-6.505l4.6-4.598-6.011-6.012-4.6 4.6v-6.505h-8.502v6.505l-4.6-4.6-6.011 6.012 4.601 4.598h-6.506v8.501h6.506l-4.601 4.601 6.011 6.012 4.6-4.601V88h8.502v-6.505l4.6 4.601 6.011-6.013-4.599-4.6h6.504v-8.501z" fill="none" stroke="#000" stroke-width="1.99" transform="matrix(.73794 0 0 .7718 -1.665 -5.046)"/><circle cx="48" cy="71.234" r="6.385" fill="none" stroke="#000" stroke-width="1.99" transform="matrix(.73794 0 0 .7718 -1.665 -5.046)"/></svg>

<?xml version="1.0" encoding="UTF-8" standalone="no"?>
<!DOCTYPE svg PUBLIC "-//W3C//DTD SVG 1.1//EN" "http://www.w3.org/Graphics/SVG/1.1/DTD/svg11.dtd">
<svg width="100%" height="100%" viewBox="0 0 64 64" version="1.1" xmlns="http://www.w3.org/2000/svg" xmlns:xlink="http://www.w3.org/1999/xlink" xml:space="preserve" xmlns:serif="http://www.serif.com/" style="fill-rule:evenodd;clip-rule:evenodd;stroke-miterlimit:10;">
    <g transform="matrix(1,0,0,1,-16,-28)">
        <g>
            <g transform="matrix(0.737936,0,0,0.771794,14.3355,22.9539)">
                <path d="M42.696,36.959C40.508,36.959 39.417,35.787 39.417,34.343L39.417,22.478C39.417,21.033 41.19,19.861 43.378,19.861L52.623,19.861C54.81,19.861 56.583,21.033 56.583,22.478L56.583,34.343C56.583,35.787 55.491,36.919 53.304,36.919" style="fill:none;stroke:rgb(204,204,204);stroke-width:1.99px;"/>
            </g>
            <g transform="matrix(0.737936,0,0,0.771794,14.3355,22.9539)">
                <path d="M42.696,27.003L42.696,48.813L53.304,48.813L53.304,27.003M48,36.959L48,48.813" style="fill:none;stroke:rgb(204,204,204);stroke-width:1.99px;"/>
            </g>
            <g transform="matrix(0.737936,0,0,0.771794,14.3355,22.9539)">
                <circle cx="48" cy="13.234" r="5.234" style="fill:none;stroke:rgb(204,204,204);stroke-width:1.99px;"/>
            </g>
            <g transform="matrix(0.737936,0,0,0.771794,14.3355,22.9539)">
                <path d="M16.588,52.57C14.4,52.57 13.31,51.397 13.31,49.953L13.31,38.089C13.31,36.644 15.083,35.472 17.271,35.472L26.515,35.472C28.702,35.472 30.475,36.644 30.475,38.089L30.475,49.953C30.475,51.397 29.383,52.529 27.196,52.529" style="fill:none;stroke:rgb(204,204,204);stroke-width:1.99px;"/>
                <path d="M16.588,42.614L16.588,64.423L27.196,64.423L27.196,42.614M21.892,52.57L21.892,64.423" style="fill:none;stroke:rgb(204,204,204);stroke-width:1.99px;"/>
                <circle cx="21.892" cy="28.845" r="5.234" style="fill:none;stroke:rgb(204,204,204);stroke-width:1.99px;"/>
                <g>
                    <path d="M68.804,52.57C66.616,52.57 65.526,51.397 65.526,49.953L65.526,38.089C65.526,36.644 67.298,35.472 69.487,35.472L78.731,35.472C80.918,35.472 82.691,36.644 82.691,38.089L82.691,49.953C82.691,51.397 81.599,52.529 79.413,52.529" style="fill:none;stroke:rgb(204,204,204);stroke-width:1.99px;"/>
                    <path d="M68.804,42.614L68.804,64.423L79.412,64.423L79.412,42.614M74.107,52.57L74.107,64.423" style="fill:none;stroke:rgb(204,204,204);stroke-width:1.99px;"/>
                    <circle cx="74.107" cy="28.845" r="5.234" style="fill:none;stroke:rgb(204,204,204);stroke-width:1.99px;"/>
                </g>
            </g>
            <g transform="matrix(0.737936,0,0,0.771794,14.3355,22.9539)">
                <path d="M64.767,66.982L58.262,66.982L62.862,62.384L56.851,56.372L52.251,60.972L52.251,54.467L43.749,54.467L43.749,60.972L39.149,56.372L33.138,62.384L37.739,66.982L31.233,66.982L31.233,75.483L37.739,75.483L33.138,80.084L39.149,86.096L43.749,81.495L43.749,88L52.251,88L52.251,81.495L56.851,86.096L62.862,80.083L58.263,75.483L64.767,75.483L64.767,66.982Z" style="fill:none;stroke:rgb(204,204,204);stroke-width:1.99px;"/>
            </g>
            <g transform="matrix(0.737936,0,0,0.771794,14.3355,22.9539)">
                <circle cx="48" cy="71.234" r="6.385" style="fill:none;stroke:rgb(204,204,204);stroke-width:1.99px;"/>
            </g>
        </g>
    </g>
</svg>
